X: 1
T: James Gannon's
M: 6/8
L: 1/8
R: jig
K: Dmaj
ag|:fef d2B|AFA d2e|faf def|gfg a2g|
fef d2B|AFA d2e|faf ede|fdd d2a:|
|:aba fdf|a2a fdf|gag ece|gag ece|
aba fdf|a2a fdf|gfg eag|edc d3 :|
